X: 7503
T: Coast Of Austria, The
R: reel
M: 4/4
K: Dmajor
E|:FA A2 BAFA|B3d ADFD|FA A2 BAFA|Bddc d2 de|
fedf edBd|B3A B2 dB|ADFA B3 d|AFEF D2 DE:|
|:F2 EF DB B2|AFAB D2 DE|FA A2 BAFA|Bddc d2 de|
fedf edBd|B3A B2 dB|ADFA B3 d|AFEF D2 DE:|

